X:1
T:The Entertainer
T:Scott Joplin
%%score 1 2
L:1/8
M:4/4
K:Bb
V:1 treble transpose=-2 nm="BaccidentalFlat Clarinet" snm="BaccidentalFlat Cl."
V:2 bass nm="Violoncello" snm="Vc."
V:1
[K:C] (d'!f!e').c'(a- a)b g2 | !trill(!TD8 | (DE).CA,- A,B,(A,_A,) | G,2 z2{Bd} g z (D!mp!^D) |: %4
 (E c2) (E c2) (Ec-) | c4- c(cd)^d | (ec)d(e- e)B d2 | c4- c z (D^D) | (E c2) (E c2) (Ec-) | %9
 c4- c z!f! (AG) | (^FA)c(e- e)d(cA) | d4- d z!mp! (D^D) | (E c2) (E c2) (Ec-) | %13
 c4- c!<(!(cd)^d!<)! |!f! (ec)d(e- e)B d2 | c4- c z (cd) | ecde- ecdc | ecde- ecdc | ecde- eB d2 |1 %19
 c4- c z!>(! (D^D)!>)! :|2 c4- c z z2 |: !tenuto!C2 (FE) !tenuto!G,2 (D^D) | %22
 !tenuto!C2 (FE) !tenuto!G,2 (G,E,) | !tenuto!F,2 (E,F,) !tenuto!F,2 (G,F,) | E,(EF)G (AG)(D^D) | %25
 !tenuto!C2 (FE) !tenuto!G,2 (D^D) | !tenuto!C2 (FE) (E2 _E2) | (D2 d2) (D2 c2) | (BG) F2 E2 D2 | %29
 !tenuto!C2 (FE) !tenuto!G,2 (D^D) | !tenuto!C2 (FE) !tenuto!G,2 (GE) | %31
 !tenuto!F,2 (E,F,) !tenuto!F,2 (G,F,) | E,2 G,2 C.G,.^F,.G, | C2 .A,!>!C- C.A,.C.A, | %34
 (G,C).E!>!G- GECG, | A,2 C2 .E !>!D2 !>!C- |1 C4- C z z2 :|2 C2 PTG2{^FG} c z z2 || %38
[K:F] z2!mp! (fe) (fc)AF | _B,2 (BA) (Bc)de | (fe) (f4 a2) | b6 z2 | B,2 B2 (G,2 ^G,2) | %43
 (A,C)FC (AF)cA | (e^g)=b(e'- e')d'(bc') | a4!>(!!<(! !>!b4!>)!!<)! |!mp! (a^g) (a4 c'2) | d'6 z2 | %48
 z2 (d^c) (dA)FD | G,2 (G^F) (GA)Bg | d2 .gd- d.g d2 | c4 !>!f3 f | a c'2 g- g(cd)e | %53
 f4 .f' z z2 ||[K:C]!p! .F2 .F2 .^F2 F2 | .G2 .E2 .E2 .E2 | .^F2 .F2 .=F2 .F2 | %57
 .E2 !tenuto!G,2 .C z z2 ||!p! A6 (3(FC)A, | (F,4 ^D4) | E6!<(! (3(EC)G,!<)! | (E,4 G4) | %62
 B2 ^AB- BA (3(Bc)^c | d4!<(! (B2 d2)!<)! |!f! .^d.d (!>!d4 ^f2) | g(g/a/) g/e/d/c/ G2 (g/e/)d/c/ | %66
 f2 (ef-) f(e f2) | z (ad')a (c'd')c'a | g2 (^fg-) g(f!<(! g2)!<)! | z (ce).c (de)dc | %70
 (A^G)Ag- g f2 c | (e^d)ea- a(c'g)e | c2 c2 e d2 G | (c2- (7:4:7c/)d/e/f/g/a/b/ .c' z z2 |] %74
V:2
!f! !trill(!TC8 | (CD).B,(G,- G,)A, F,2 | PTC,4- C,(C,D,).=E, | F,2 z2 .F,, z!mp! !>!A,,2 |: %4
 B,,2 .D,2 F,,2 .D,2 | E,,2 .E,2 D,,2 .D,2 | F,,2 .D,2 F,,2 .E,2 | D,2 F,2 B,, z !>!F,,2 | %8
 B,,2 .D,2 F,,2 .D,2 | E,,2 E,2 D,2 _D,2 | C,2 G,2 =E,2 C,2 | F,2!f!!>(! (!>!F,,2 G,,2) A,,2!>)! | %12
 B,,2 .D,2 F,,2 .D,2 | E,,2 .E,2 D,,2 .D,2 | F,,2 .D,2 F,,2 .E,2 | D,2 F,2 B,, z!f! !tenuto!F,,2 | %16
 (B,,2 F,2) (_A,,2 F,2) | (G,,2 E,2) (_G,,2 E,2) | (F,,2 D,2) (F,,2 D,2) |1 %19
 D,2 !>!F,,2!>(! G,,2 A,,2!>)! :|2 D,2 F,2 B,,(DE)=E |: F,2 (G,F,-) F,(D,E,)=E, | %22
 F,2 (G,F,-) F,(D,B,,)F,, | (G,,A,,)B,,C, (D,C,)B,,C, | F,2 .D,2 .F,,(D,E,)=E, | %25
 F,2 (G,F,-) F,(D,E,)=E, | F,2 (G,F,-) F,(F,G,)^G, | A, A,2 (A,- A,)G,=E,C, | F,4- F,(D,E,)=E, | %29
 F,2 (G,F,-) F,(D,E,)=E, | F,2 (G,F,-) F,(D,B,,)F,, | (G,,A,,)B,,C, (D,C,)B,,C, | B,,4- B,, z z2 | %33
 .E,,2 .E,,2 .=E,,2 .E,,2 | (F,,2 B,,2) D,2 F,2 | =E,2 E,2 _E,2 E,2 |1 D,2 F,2 B,,(D,E,)=E, :|2 %37
 D,2 F,2 B,, z z2 ||[K:Eb]!mp! (G,^F,) (G,4 B,2) | C6 z2 | z2 (C=B,) (CG,)E,C, | %41
 F,,2 (F,=E,) (F,G,)A,F | C2 .FC- C.F C2 | (B,4 E4) | ^F,4 D,4 | %45
 (G,D,).B,,.D, (!>!B,,=B,,)!<(!C,!>(!.D,!<)!!>)! | z2!mp! (ED) (EB,)G,E, | A,,2 (A,G,) (A,B,)CD | %48
 (ED) (E4 G2) | A,6 z2 | A,,2 A,2 (F,,2 ^F,,2) | (G,,B,,).E,.B,, (!>!=B,,^D,)^F,=A, | %52
 B,2 B,,2 D,2 B,,2 | E,2 B,,2 .E,, z z2 ||[K:Bb]!p! B,,2 .G,,!>!B,,- B,,.G,,.B,,.G,, | %55
 .F,,.B,,.D,!>!F,- F,.D,.B,,.F,, | .G,,2 B,,2 .D, !>!C,2 F,, | B,,2 (PTF,3/2=E,/4)F,/4 .B, z z2 || %58
!p! E,2 D,E,- E,D, E,2 | z (G,C)G, (B,C)B,G, | F,2 =E,F,- F,!<(!E, F,2!<)! | %61
 z (B,,D,)B,, (C,D,)C,B,, | C,2 =B,,C,- C,B,, C,2 | z (E,G,)E, F,G,F,E, |!f! .B,.B, (B,4 G,2) | %65
 F, z z D, (F,/D,/)C,/B,,/ (D,B,,) | G,,2 (^F,,G,,-) G,,(F,, G,,2) | z (E,G,)D, (E,D,)E,^C, | %68
 D,2 (^C,D,-) D,(C,!<(! D,2)!<)! | z (B,A,).G, F,(B,,A,,)_A,, | E,,E,,G,,^F,,- F,, F,,2 F,, | %71
 (F,,=E,,)F,,E,,- E,,(G,D,)B,, | =E,,2 E,,2 _E,, E,,2 E,, | D,,2 F,,2 .B,, z z2 |] %74

